X:1
T:6 Lieder, Op.7
T:Frühling
T:3. Frühling
T:Fanny (Mendelssohn) Hensel
T:Joseph Freiherr von Eichendorff
T:6 Lieder, Op.7
T:Creative Commons copyright waiver (CC0 1.0 Universal)
T:Creative Commons copyright waiver (CC0 1.0 Universal)
T:Creative Commons copyright waiver (CC0 1.0 Universal)
T:Creative Commons copyright waiver (CC0 1.0 Universal)
C:Fanny (Mendelssohn) Hensel
Z:Joseph Freiherr von Eichendorff
Z:Creative Commons copyright waiver (CC0 1.0 Universal)
L:1/8
Q:1/4=120
M:2/4
K:F#
V:1 treble nm="Gesang\nVoice"
V:1
"^Allegro molto" z4 | z2 z c/ c/ | f2 c A/ F/ | d2 c c/ c/ | f ^^c d A | B2 z2 | z2 e3/2 d/ | %7
w: |Ü- bern|Gar- ten durch die|Lüf- te hör ich|Wan- der- vö- gel|ziehn,|das be-|
 d c d3/2 c/ | c B c B/G/ | F F F F | =e3 ^^c/ c/ | d G A B | A G d3/2 d/ | d/c/ B/G/ F G | A2 z2 | %15
w: deu- tet Früh- lings-|düf- te, al- les *|fängt schon an zu|blühn, das be-|deu- tet Früh- lings-|düf- te, al- les|fängt * schon * an zu|blühn.|
 z4 | z4 | z4 | z2 c3/2 A/ | G ^^F d3/2 A/ | c B z B/ A/ | AG/ G/ d3/2 E/ | d^^c z A/ B/ | %23
w: |||Jauch- zen|möcht ich, möch- te|wei- nen, Lenz und|Lie- * be muss das|sein, * al- le|
 ^c3/2 c/ =e/c/ A/G/ | G2 ^^F G/ A/ | B3/2 B/ A/B/ =d/f/ | fe z2 | z2 d3/2 B/ | ^^G A z2 | z2 e f | %30
w: Wun- der wie- * der *|schei- nen mit dem|Mon- den- glanz * her- *|ein, *|jauch- zen|möcht ich,|möch- te|
 f2- f/e/d/c/ | c2 z c/ c/ | f3/2 c/ A F | d2 c c/ c/ | f ^^c d A | B2 z2 | z2 e3/2 d/ | %37
w: wei- * * * *|nen, und der|Mond, die Ster- ne|sa- gen, und in|Träu- men rauscht der|Hain,|und die|
 d c d3/2 c/ | c B c B/G/ | F3/2 F/ F F | =e3 ^^c/ d/ | d G A B | A G d3/2 d/ | d/c/ B/G/ F G | %44
w: Nach- ti- gal- len|schla- gen, sie ist *|dein, ja sie ist|dein, und die|Nach- ti- gal- len|schla- gen, sie ist|dein, * ja * sie ist|
 A2 c F | f3/2 d/ c ^B | c A G F | f3/2 ^B/ B B | cagf | ^e c B G | F2 z2 | z2 c3/2 A/ | f4 | z4 | %54
w: dein, und der|Mond, die Ster- ne|sa- gen, und die|Nach- ti- gal- len|schla- * * *|* gen, sie ist|dein,|sie ist|dein!||
 z4 | z4 | z4 |] %57
w: |||

